flaticon/essential/spotlight.svg

<svg xmlns="http://www.w3.org/2000/svg" width="32" height="32" viewBox="0 0 24 24">
    <path d="M 15.925781 10.515625 L 23.464844 3.902344 C 23.515625 3.855469 23.558594 3.792969 23.578125 3.726562 L 23.628906 3.578125 C 23.867188 3.277344 24 2.949219 24 2.601562 C 24 2.558594 23.992188 2.519531 23.988281 2.480469 C 24.003906 2.386719 23.984375 2.292969 23.9375 2.210938 C 23.570312 0.925781 21.402344 0 18.601562 0 C 15.820312 0 13.664062 0.910156 13.269531 2.179688 C 13.269531 2.183594 13.261719 2.183594 13.261719 2.1875 L 12 4.210938 L 10.738281 2.1875 C 10.738281 2.183594 10.730469 2.183594 10.730469 2.179688 C 10.335938 0.910156 8.179688 0 5.398438 0 C 2.320312 0 0 1.117188 0 2.601562 C 0 2.949219 0.132812 3.277344 0.371094 3.578125 L 0.421875 3.726562 C 0.441406 3.792969 0.484375 3.855469 0.535156 3.902344 L 8.074219 10.515625 L 0.0585938 23.390625 C -0.0429688 23.558594 -0.0117188 23.777344 0.140625 23.90625 C 0.214844 23.96875 0.308594 24 0.398438 24 C 0.492188 24 0.589844 23.96875 0.664062 23.902344 L 12 13.957031 L 23.335938 23.902344 C 23.410156 23.96875 23.507812 24 23.601562 24 C 23.691406 24 23.785156 23.96875 23.859375 23.90625 C 24.011719 23.777344 24.042969 23.558594 23.941406 23.390625 Z M 18.601562 0.800781 C 21.191406 0.800781 23.027344 1.664062 23.183594 2.484375 C 23.1875 2.496094 23.1875 2.511719 23.1875 2.515625 C 23.191406 2.542969 23.199219 2.574219 23.199219 2.601562 C 23.199219 2.761719 23.128906 2.925781 23 3.089844 C 22.992188 3.097656 22.980469 3.105469 22.972656 3.113281 C 22.699219 3.433594 22.167969 3.753906 21.429688 3.996094 C 21.425781 3.996094 21.425781 3.996094 21.425781 3.996094 C 21.339844 4.023438 21.25 4.050781 21.15625 4.078125 C 21.121094 4.089844 21.085938 4.097656 21.046875 4.105469 C 20.980469 4.125 20.910156 4.144531 20.839844 4.160156 C 20.722656 4.1875 20.601562 4.210938 20.476562 4.234375 C 20.453125 4.238281 20.425781 4.242188 20.402344 4.246094 C 20.292969 4.265625 20.183594 4.285156 20.070312 4.300781 C 20.035156 4.304688 20 4.308594 19.964844 4.3125 C 19.859375 4.328125 19.753906 4.339844 19.644531 4.351562 C 19.601562 4.355469 19.5625 4.359375 19.523438 4.359375 C 19.410156 4.371094 19.300781 4.378906 19.183594 4.382812 C 19.144531 4.386719 19.105469 4.386719 19.066406 4.390625 C 18.914062 4.394531 18.757812 4.398438 18.601562 4.398438 C 15.890625 4.398438 14 3.453125 14 2.601562 C 14 1.75 15.890625 0.800781 18.601562 0.800781 Z M 5.398438 0.800781 C 8.109375 0.800781 10 1.75 10 2.601562 C 10 3.453125 8.109375 4.398438 5.398438 4.398438 C 5.242188 4.398438 5.085938 4.394531 4.933594 4.390625 C 4.894531 4.386719 4.855469 4.386719 4.8125 4.382812 C 4.699219 4.378906 4.589844 4.371094 4.476562 4.359375 C 4.4375 4.359375 4.394531 4.355469 4.355469 4.351562 C 4.246094 4.339844 4.140625 4.328125 4.035156 4.3125 C 4 4.308594 3.964844 4.304688 3.929688 4.300781 C 3.816406 4.285156 3.707031 4.265625 3.597656 4.246094 C 3.574219 4.242188 3.546875 4.238281 3.523438 4.234375 C 3.398438 4.210938 3.277344 4.1875 3.160156 4.160156 C 3.089844 4.144531 3.019531 4.125 2.949219 4.105469 C 2.914062 4.097656 2.878906 4.089844 2.84375 4.078125 C 2.75 4.050781 2.660156 4.027344 2.574219 3.996094 C 2.574219 3.996094 2.574219 3.996094 2.570312 3.996094 C 1.832031 3.753906 1.300781 3.433594 1.027344 3.113281 C 1.019531 3.105469 1.007812 3.097656 1 3.089844 C 0.871094 2.925781 0.800781 2.761719 0.800781 2.601562 C 0.800781 1.75 2.6875 0.800781 5.398438 0.800781 Z M 2.917969 4.925781 C 3.457031 5.054688 4.050781 5.140625 4.683594 5.175781 C 4.710938 5.179688 4.734375 5.179688 4.761719 5.183594 C 4.96875 5.191406 5.183594 5.199219 5.398438 5.199219 C 5.578125 5.199219 5.75 5.195312 5.921875 5.1875 C 5.976562 5.1875 6.027344 5.183594 6.082031 5.179688 C 6.199219 5.171875 6.316406 5.164062 6.429688 5.15625 C 6.488281 5.148438 6.546875 5.144531 6.605469 5.136719 C 6.71875 5.128906 6.828125 5.113281 6.933594 5.097656 C 6.988281 5.09375 7.039062 5.085938 7.09375 5.078125 C 7.222656 5.058594 7.355469 5.035156 7.480469 5.011719 C 7.503906 5.007812 7.527344 5.003906 7.550781 5 C 7.699219 4.96875 7.84375 4.9375 7.984375 4.902344 C 8.027344 4.890625 8.066406 4.878906 8.109375 4.867188 C 8.207031 4.84375 8.304688 4.816406 8.398438 4.785156 C 8.445312 4.769531 8.492188 4.753906 8.539062 4.742188 C 8.625 4.710938 8.710938 4.679688 8.792969 4.648438 C 8.835938 4.632812 8.878906 4.617188 8.921875 4.601562 C 9.011719 4.5625 9.101562 4.523438 9.1875 4.484375 C 9.214844 4.472656 9.242188 4.460938 9.269531 4.449219 C 9.378906 4.394531 9.480469 4.339844 9.582031 4.28125 C 9.609375 4.265625 9.632812 4.25 9.65625 4.234375 C 9.730469 4.191406 9.796875 4.144531 9.863281 4.097656 C 9.894531 4.078125 9.925781 4.054688 9.957031 4.03125 C 10.011719 3.988281 10.066406 3.945312 10.117188 3.902344 C 10.144531 3.875 10.171875 3.851562 10.199219 3.828125 C 10.25 3.777344 10.296875 3.730469 10.34375 3.679688 C 10.363281 3.65625 10.382812 3.636719 10.398438 3.617188 C 10.457031 3.546875 10.507812 3.476562 10.554688 3.40625 L 11.527344 4.96875 L 10.171875 7.148438 L 8.503906 9.824219 Z M 8.933594 10.648438 L 12.339844 5.179688 L 13.445312 3.40625 C 13.492188 3.476562 13.542969 3.546875 13.601562 3.617188 C 13.617188 3.636719 13.636719 3.660156 13.65625 3.679688 C 13.703125 3.730469 13.75 3.78125 13.800781 3.828125 C 13.828125 3.855469 13.855469 3.878906 13.886719 3.902344 C 13.9375 3.945312 13.988281 3.988281 14.042969 4.03125 C 14.074219 4.054688 14.105469 4.078125 14.136719 4.101562 C 14.203125 4.144531 14.269531 4.191406 14.339844 4.234375 C 14.367188 4.25 14.390625 4.265625 14.417969 4.28125 C 14.519531 4.339844 14.621094 4.394531 14.730469 4.449219 C 14.757812 4.460938 14.789062 4.472656 14.816406 4.484375 C 14.902344 4.527344 14.988281 4.5625 15.078125 4.601562 C 15.121094 4.617188 15.164062 4.632812 15.210938 4.652344 C 15.292969 4.679688 15.375 4.710938 15.460938 4.738281 C 15.507812 4.753906 15.554688 4.769531 15.601562 4.785156 C 15.695312 4.816406 15.792969 4.84375 15.890625 4.867188 C 15.933594 4.878906 15.972656 4.890625 16.015625 4.902344 C 16.15625 4.9375 16.300781 4.96875 16.449219 5 C 16.472656 5.003906 16.496094 5.007812 16.523438 5.011719 C 16.648438 5.035156 16.777344 5.058594 16.90625 5.078125 C 16.960938 5.085938 17.011719 5.09375 17.066406 5.097656 C 17.171875 5.113281 17.28125 5.125 17.394531 5.136719 C 17.453125 5.144531 17.511719 5.148438 17.570312 5.15625 C 17.683594 5.164062 17.800781 5.171875 17.917969 5.179688 C 17.972656 5.179688 18.023438 5.1875 18.078125 5.1875 C 18.25 5.195312 18.421875 5.199219 18.601562 5.199219 C 18.816406 5.199219 19.03125 5.191406 19.238281 5.183594 C 19.265625 5.179688 19.289062 5.179688 19.316406 5.175781 C 19.949219 5.140625 20.542969 5.054688 21.082031 4.925781 L 15.140625 10.136719 L 11.734375 13.125 L 2.167969 21.515625 Z M 12.605469 13.425781 L 15.3125 11.050781 L 21.832031 21.515625 Z M 12.605469 13.425781"/>
</svg>

<svg xmlns="http://www.w3.org/2000/svg" width="32" height="32" viewBox="0 0 24 24">
    <path d="M15.926 10.516l7.539-6.614a.403.403 0 0 0 .113-.175l.05-.149c.24-.3.372-.629.372-.976 0-.043-.008-.082-.012-.122a.406.406 0 0 0-.05-.27C23.57.927 21.401 0 18.602 0c-2.782 0-4.938.91-5.332 2.18 0 .004-.008.004-.008.007L12 4.212l-1.262-2.024c0-.003-.008-.003-.008-.007C10.336.91 8.18 0 5.398 0 2.32 0 0 1.117 0 2.602c0 .347.133.675.371.976l.05.149c.02.066.063.128.114.175l7.54 6.614L.058 23.39a.402.402 0 0 0 .082.515.403.403 0 0 0 .523-.004L12 13.957l11.336 9.945a.403.403 0 0 0 .523.004.402.402 0 0 0 .082-.515zM18.602.8c2.59 0 4.425.863 4.582 1.683.003.012.003.028.003.032.004.027.012.058.012.086 0 .16-.07.324-.199.488-.008.008-.02.015-.027.023-.274.32-.805.64-1.543.883h-.004c-.086.027-.176.055-.27.082a.895.895 0 0 1-.11.027c-.066.02-.136.04-.206.055a8.5 8.5 0 0 1-.363.074l-.075.012c-.109.02-.218.04-.332.055l-.105.011c-.106.016-.211.028-.32.04-.043.003-.082.007-.122.007-.113.012-.222.02-.34.024-.038.004-.078.004-.117.008-.152.004-.308.007-.464.007C15.89 4.398 14 3.453 14 2.602 14 1.75 15.89.8 18.602.8zM5.398.8C8.11.8 10 1.75 10 2.6c0 .852-1.89 1.797-4.602 1.797-.156 0-.312-.003-.464-.007-.04-.004-.079-.004-.122-.008a4.852 4.852 0 0 1-.335-.024 1.26 1.26 0 0 1-.122-.007 7.977 7.977 0 0 1-.32-.04l-.105-.011c-.114-.016-.223-.035-.332-.055l-.075-.012a8.5 8.5 0 0 1-.363-.074 4.187 4.187 0 0 1-.21-.055c-.036-.007-.071-.015-.106-.027-.094-.027-.184-.05-.27-.082H2.57c-.738-.242-1.27-.562-1.543-.883-.007-.008-.02-.015-.027-.023-.129-.164-.2-.328-.2-.488C.8 1.75 2.688.8 5.399.8zm-2.48 4.125c.539.129 1.133.215 1.766.25.027.004.05.004.078.008.207.007.422.015.636.015.18 0 .352-.004.524-.011.055 0 .105-.004.16-.008l.348-.024c.058-.008.117-.011.175-.02.114-.007.223-.023.329-.038.054-.004.105-.012.16-.02.129-.02.261-.043.386-.066L7.55 5c.15-.031.294-.063.434-.098.043-.011.082-.023.125-.035.098-.023.196-.05.29-.082a1.93 1.93 0 0 1 .14-.043c.086-.031.172-.062.254-.094l.129-.046c.09-.04.18-.079.265-.118l.083-.035c.109-.054.21-.11.312-.168.027-.015.05-.031.074-.047.074-.043.14-.09.207-.136a1.38 1.38 0 0 0 .094-.067c.055-.043.11-.086.16-.129.028-.027.055-.05.082-.074.051-.05.098-.098.145-.148.02-.024.039-.043.054-.063.059-.07.11-.14.157-.21l.972 1.562-1.355 2.18-1.668 2.675zm6.016 5.722L12.34 5.18l1.105-1.774a2.44 2.44 0 0 0 .211.274c.047.05.094.101.145.148.027.027.054.05.086.074.05.043.101.086.156.13l.094.07c.066.043.133.09.203.132.027.016.05.032.078.047.102.059.203.114.312.168l.086.035c.086.043.172.079.262.118.043.015.086.03.133.05.082.028.164.059.25.086l.14.047c.094.031.192.059.29.082.043.012.082.024.125.035.14.035.285.067.433.098l.074.012c.125.023.254.047.383.066.055.008.106.016.16.02.106.015.215.027.329.039.058.008.117.011.175.02l.348.023c.055 0 .105.008.16.008a11.444 11.444 0 0 0 1.16-.004c.028-.004.051-.004.078-.008a10.011 10.011 0 0 0 1.766-.25l-5.941 5.21-3.407 2.989-9.566 8.39zm3.671 2.778l2.707-2.375 6.52 10.465zm0 0"/>
</svg>
